assets/svg/failure.svg

<?xml version="1.0" encoding="UTF-8"?>
<svg width="1000px" height="1000px" viewBox="0 0 1000 1000" version="1.1" xmlns="http://www.w3.org/2000/svg" xmlns:xlink="http://www.w3.org/1999/xlink">
    <!-- Generator: sketchtool 52.4 (67378) - http://www.bohemiancoding.com/sketch -->
    <title>failure</title>
    <desc>Created with sketchtool.</desc>
    <g id="新版图标" stroke="none" stroke-width="1" fill="none" fill-rule="evenodd">
        <g id="failure" fill="#323233" fill-rule="nonzero">
            <g id="圆角-交易失败-线">
                <path d="M777.777778,111.111111 C808.460264,111.111111 833.333333,135.984181 833.333333,166.666667 L833.333333,888.888889 C833.333333,919.571375 808.460264,944.444444 777.777778,944.444444 L222.222222,944.444444 C191.539736,944.444444 166.666667,919.571375 166.666667,888.888889 L166.666667,166.666667 C166.666667,135.984181 191.539736,111.111111 222.222222,111.111111 L388.888889,111.111111 L388.888889,166.666667 L222.222222,166.666667 L222.222222,888.888889 L777.777778,888.888889 L777.777778,166.666667 L611.111111,166.666667 L611.111111,111.111111 L777.777778,111.111111 Z M416.666667,111.111111 C401.325424,111.111111 388.888889,123.547646 388.888889,138.888889 C388.888889,154.230132 401.325424,166.666667 416.666667,166.666667 L583.333333,166.666667 C598.674576,166.666667 611.111111,154.230132 611.111111,138.888889 C611.111111,123.547646 598.674576,111.111111 583.333333,111.111111 L416.666667,111.111111 Z M541.044229,500 L621.718474,580.674245 C622.499523,581.455293 622.499523,582.721623 621.718474,583.502672 L583.502672,621.718474 C582.721623,622.499523 581.455293,622.499523 580.674245,621.718474 L500,541.044229 L418.265095,622.779134 C418.069833,622.974396 417.75325,622.974396 417.557988,622.779134 L377.220866,582.442012 C377.025604,582.24675 377.025604,581.930167 377.220866,581.734905 L458.955771,500 L378.281526,419.325755 C377.500477,418.544707 377.500477,417.278377 378.281526,416.497328 L416.497328,378.281526 C417.278377,377.500477 418.544707,377.500477 419.325755,378.281526 L500,458.955771 L581.734905,377.220866 C581.930167,377.025604 582.24675,377.025604 582.442012,377.220866 L622.779134,417.557988 C622.974396,417.75325 622.974396,418.069833 622.779134,418.265095 L541.044229,500 Z M416.666667,55.5555556 L583.333333,55.5555556 C629.357062,55.5555556 666.666667,92.8651597 666.666667,138.888889 C666.666667,184.912618 629.357062,222.222222 583.333333,222.222222 L416.666667,222.222222 C370.642938,222.222222 333.333333,184.912618 333.333333,138.888889 C333.333333,92.8651597 370.642938,55.5555556 416.666667,55.5555556 Z" id="Rectangle-22"></path>
            </g>
        </g>
    </g>
</svg>

<svg width="1000" height="1000" xmlns="http://www.w3.org/2000/svg"><path d="M777.778 111.111c30.682 0 55.555 24.873 55.555 55.556v722.222c0 30.682-24.873 55.555-55.555 55.555H222.222c-30.682 0-55.555-24.873-55.555-55.555V166.667c0-30.683 24.873-55.556 55.555-55.556H388.89v55.556H222.222v722.222h555.556V166.667H611.11V111.11h166.667zm-361.111 0c-15.342 0-27.778 12.437-27.778 27.778s12.436 27.778 27.778 27.778h166.666c15.342 0 27.778-12.437 27.778-27.778s-12.436-27.778-27.778-27.778H416.667zM541.044 500l80.674 80.674a2 2 0 0 1 0 2.829l-38.215 38.215a2 2 0 0 1-2.829 0L500 541.044l-81.735 81.735a.5.5 0 0 1-.707 0l-40.337-40.337a.5.5 0 0 1 0-.707L458.956 500l-80.674-80.674a2 2 0 0 1 0-2.829l38.215-38.215a2 2 0 0 1 2.829 0L500 458.956l81.735-81.735a.5.5 0 0 1 .707 0l40.337 40.337a.5.5 0 0 1 0 .707L541.044 500zM416.667 55.556h166.666c46.024 0 83.334 37.31 83.334 83.333 0 46.024-37.31 83.333-83.334 83.333H416.667c-46.024 0-83.334-37.31-83.334-83.333 0-46.024 37.31-83.333 83.334-83.333z" fill="#323233" fill-rule="nonzero"/></svg>
